src/assets/svg/react.svg

<svg width="60" height="60" viewBox="0 0 60 60" fill="none" xmlns="http://www.w3.org/2000/svg">
<rect width="60" height="60" rx="14" fill="url(#paint0_linear_707_3326)"/>
<g clip-path="url(#clip0_707_3326)">
<path d="M43.7121 23.304C43.258 23.1482 42.8001 23.0039 42.3388 22.8711C42.4163 22.5545 42.4876 22.2416 42.5509 21.9343C43.5906 16.8875 42.9109 12.8216 40.5894 11.483C38.3636 10.1996 34.7234 11.5378 31.0471 14.7373C30.6848 15.0532 30.3305 15.3782 29.9846 15.712C29.753 15.49 29.5174 15.2724 29.2778 15.0591C25.4248 11.6381 21.5628 10.1963 19.2438 11.5388C17.0199 12.8261 16.3614 16.6483 17.2974 21.4313C17.3905 21.905 17.4957 22.3763 17.6128 22.8446C17.0661 23 16.5386 23.1653 16.0338 23.3413C11.5164 24.9163 8.63159 27.3845 8.63159 29.9446C8.63159 32.5888 11.7286 35.241 16.4336 36.8491C16.815 36.979 17.1997 37.0993 17.5871 37.21C17.4613 37.7144 17.3496 38.2223 17.2521 38.733C16.3598 43.433 17.0566 47.1648 19.2744 48.444C21.5651 49.765 25.4098 48.4073 29.1533 45.1348C29.4568 44.8688 29.7537 44.5952 30.0436 44.3143C30.4182 44.6757 30.8028 45.0266 31.1969 45.3666C34.8233 48.487 38.4046 49.747 40.6203 48.4643C42.9088 47.1395 43.6526 43.1305 42.6869 38.253C42.6109 37.8709 42.5255 37.4906 42.4311 37.1126C42.7011 37.0326 42.9661 36.9503 43.2244 36.8646C48.1158 35.2441 51.2983 32.6241 51.2983 29.9446C51.2983 27.3751 48.3203 24.8903 43.7121 23.304ZM42.6513 35.1346C42.4179 35.2118 42.1786 35.2863 41.9346 35.3588C41.3946 33.6493 40.6659 31.8316 39.7741 29.9535C40.6251 28.1201 41.3258 26.3256 41.8506 24.6273C42.2871 24.7536 42.7106 24.8868 43.1189 25.0273C47.0673 26.3866 49.4756 28.3961 49.4756 29.9446C49.4756 31.594 46.8746 33.7351 42.6513 35.1346ZM40.8989 38.607C41.3259 40.7636 41.3868 42.7136 41.1039 44.2381C40.8499 45.608 40.3389 46.5211 39.7069 46.887C38.3624 47.6653 35.4869 46.6536 32.3858 43.985C32.0192 43.6689 31.6614 43.3426 31.3129 43.0066C32.5153 41.6918 33.7168 40.1633 34.8894 38.4656C36.9521 38.2826 38.9008 37.9833 40.6679 37.5748C40.7531 37.917 40.8301 38.2611 40.8989 38.607ZM23.1776 46.7525C21.8639 47.2163 20.8176 47.2296 20.1851 46.865C18.8393 46.0888 18.2798 43.0923 19.0429 39.073C19.1336 38.598 19.2375 38.1257 19.3544 37.6565C21.1021 38.0431 23.0366 38.3211 25.1041 38.4888C26.2848 40.15 27.5209 41.6768 28.7668 43.0138C28.502 43.27 28.231 43.5196 27.9539 43.7625C26.2984 45.2095 24.6396 46.2361 23.1776 46.7525ZM17.0233 35.1245C14.9428 34.4133 13.2246 33.4891 12.0469 32.4806C10.9886 31.5745 10.4544 30.6746 10.4544 29.9446C10.4544 28.391 12.7706 26.4093 16.6338 25.0625C17.1026 24.8991 17.5933 24.745 18.1024 24.6003C18.6364 26.337 19.3368 28.1528 20.1819 29.989C19.3258 31.8523 18.6154 33.6971 18.0763 35.4543C17.7226 35.353 17.3715 35.243 17.0233 35.1245ZM19.0863 21.0811C18.2844 16.9833 18.8169 13.8921 20.1571 13.1163C21.5844 12.29 24.7408 13.4681 28.0676 16.4221C28.2845 16.6152 28.498 16.8122 28.7078 17.013C27.4681 18.3441 26.2433 19.8596 25.0731 21.511C23.0664 21.697 21.1456 21.9956 19.3796 22.3958C19.2708 21.9602 19.173 21.5217 19.0863 21.0811ZM37.4908 25.6258C37.0736 24.9053 36.641 24.1938 36.1933 23.492C37.5546 23.6641 38.8589 23.8926 40.0838 24.172C39.7161 25.3506 39.2578 26.5828 38.7183 27.8461C38.3239 27.0979 37.9147 26.3577 37.4908 25.6258ZM29.9854 18.3156C30.8261 19.2265 31.6681 20.2433 32.4963 21.3466C30.8163 21.2673 29.1335 21.267 27.4534 21.3456C28.2824 20.2525 29.1316 19.237 29.9854 18.3156ZM22.4319 25.6383C22.0133 26.3643 21.6117 27.0999 21.2274 27.8446C20.6968 26.5858 20.2426 25.348 19.8718 24.1526C21.0891 23.8803 22.3873 23.6576 23.7399 23.4886C23.2872 24.1948 22.851 24.9117 22.4319 25.6383ZM23.7788 36.5303C22.3813 36.3743 21.0636 36.1631 19.8466 35.8981C20.2233 34.6815 20.6874 33.4173 21.2296 32.1315C21.6154 32.8767 22.0187 33.6128 22.4391 34.3391C22.8714 35.0858 23.3191 35.8171 23.7788 36.5303ZM30.0358 41.702C29.1718 40.77 28.3101 39.7388 27.4686 38.6298C28.2856 38.6618 29.1184 38.6781 29.9649 38.6781C30.8346 38.6781 31.6943 38.6586 32.5404 38.621C31.7096 39.75 30.8708 40.7826 30.0358 41.702ZM38.7354 32.0658C39.3058 33.3658 39.7864 34.6233 40.1681 35.8191C38.9311 36.1015 37.5954 36.3288 36.1881 36.4976C36.6391 35.7827 37.0758 35.0589 37.4979 34.3266C37.9271 33.5823 38.3398 32.8285 38.7354 32.0658ZM35.9191 33.416C35.2728 34.5387 34.5902 35.6401 33.8723 36.7185C32.5719 36.8106 31.2686 36.8563 29.9649 36.8556C28.6371 36.8556 27.3456 36.8143 26.1019 36.7336C25.3653 35.6578 24.6696 34.5544 24.0164 33.426C23.3663 32.3035 22.7592 31.1567 22.1961 29.9881C22.7578 28.8193 23.3632 27.672 24.0111 26.5486L24.0109 26.5488C24.6586 25.4252 25.3487 24.3265 26.0798 23.2553C27.3486 23.1593 28.6498 23.1093 29.9648 23.1093C31.2858 23.1093 32.5888 23.1598 33.8573 23.2565C34.5809 24.3261 35.2666 25.421 35.9131 26.539C36.5632 27.6598 37.1766 28.8015 37.7524 29.9623C37.1825 31.1349 36.571 32.2869 35.9191 33.416ZM39.6791 13.062C41.1078 13.886 41.6634 17.2088 40.7658 21.5663C40.7084 21.8443 40.6441 22.1275 40.5741 22.4146C38.8038 22.006 36.8816 21.7021 34.8691 21.5133C33.6968 19.8438 32.4819 18.326 31.2624 17.012C31.582 16.7039 31.9092 16.4038 32.2438 16.112C35.3938 13.3708 38.3378 12.2885 39.6791 13.062ZM29.9649 26.1346C32.0691 26.1346 33.7749 27.8405 33.7749 29.9446C33.7749 32.0488 32.0691 33.7546 29.9649 33.7546C27.8608 33.7546 26.1549 32.0488 26.1549 29.9446C26.1549 27.8405 27.8608 26.1346 29.9649 26.1346Z" fill="#00D8FF"/>
</g>
<defs>
<linearGradient id="paint0_linear_707_3326" x1="30" y1="0" x2="30" y2="60" gradientUnits="userSpaceOnUse">
<stop stop-color="#23272F"/>
<stop offset="1" stop-color="#191C22"/>
</linearGradient>
<clipPath id="clip0_707_3326">
<rect width="42.6669" height="38" fill="white" transform="translate(8.63159 11)"/>
</clipPath>
</defs>
</svg>

<svg width="60" height="60" viewBox="0 0 60 60" fill="none" xmlns="http://www.w3.org/2000/svg"><rect width="60" height="60" rx="14" fill="url(#a)"/><g clip-path="url(#b)"><path d="M43.712 23.304a28.68 28.68 0 0 0-1.373-.433c.077-.316.149-.63.212-.937 1.04-5.047.36-9.112-1.962-10.451-2.225-1.283-5.866.055-9.542 3.254-.362.316-.716.641-1.062.975-.232-.222-.468-.44-.707-.653-3.853-3.42-7.715-4.863-10.034-3.52-2.224 1.287-2.883 5.11-1.947 9.892.093.474.199.945.316 1.414-.547.155-1.074.32-1.58.496-4.517 1.575-7.401 4.043-7.401 6.604 0 2.644 3.097 5.296 7.802 6.904.381.13.766.25 1.153.361a27.964 27.964 0 0 0-.335 1.523c-.892 4.7-.195 8.432 2.022 9.711 2.291 1.321 6.136-.037 9.88-3.31.303-.265.6-.539.89-.82.374.362.759.713 1.153 1.053 3.626 3.12 7.208 4.38 9.423 3.097 2.289-1.325 3.033-5.334 2.067-10.211a24.157 24.157 0 0 0-.256-1.14c.27-.08.535-.163.793-.248 4.892-1.62 8.074-4.24 8.074-6.92 0-2.57-2.978-5.055-7.586-6.641Zm-1.06 11.83a24.57 24.57 0 0 1-.717.225c-.54-1.71-1.27-3.527-2.16-5.406.85-1.833 1.55-3.627 2.076-5.326.436.127.86.26 1.268.4 3.948 1.36 6.357 3.37 6.357 4.918 0 1.649-2.601 3.79-6.825 5.19Zm-1.753 3.473c.427 2.157.488 4.107.205 5.631-.254 1.37-.765 2.283-1.397 2.649-1.345.778-4.22-.233-7.321-2.902a26.131 26.131 0 0 1-1.073-.978c1.202-1.315 2.404-2.844 3.576-4.541 2.063-.183 4.012-.483 5.779-.891.085.342.162.686.23 1.032Zm-17.721 8.145c-1.314.464-2.36.478-2.993.113-1.346-.776-1.905-3.773-1.142-7.792.09-.475.195-.947.311-1.416 1.748.386 3.683.664 5.75.832a44.378 44.378 0 0 0 3.663 4.525c-.265.256-.536.506-.813.748-1.656 1.447-3.314 2.474-4.776 2.99Zm-6.155-11.628c-2.08-.71-3.798-1.635-4.976-2.643-1.058-.907-1.593-1.806-1.593-2.536 0-1.554 2.317-3.536 6.18-4.883.469-.163.96-.317 1.468-.462a43.728 43.728 0 0 0 2.08 5.389 44.393 44.393 0 0 0-2.106 5.465 22.48 22.48 0 0 1-1.053-.33Zm2.063-14.043c-.802-4.098-.27-7.189 1.071-7.965 1.427-.826 4.584.352 7.91 3.306.218.193.431.39.64.591a43.67 43.67 0 0 0-3.634 4.498 44.525 44.525 0 0 0-5.693.885 26.697 26.697 0 0 1-.294-1.315Zm18.405 4.545c-.417-.72-.85-1.432-1.298-2.134 1.362.172 2.666.4 3.89.68a38.933 38.933 0 0 1-1.365 3.674 63.664 63.664 0 0 0-1.227-2.22Zm-7.506-7.31c.841.91 1.683 1.927 2.511 3.03-1.68-.079-3.363-.079-5.043 0a40.254 40.254 0 0 1 2.532-3.03Zm-7.553 7.322a53.92 53.92 0 0 0-1.205 2.207 40.239 40.239 0 0 1-1.355-3.692 41.176 41.176 0 0 1 3.868-.664 53.704 53.704 0 0 0-1.308 2.15Zm1.347 10.892a38.79 38.79 0 0 1-3.932-.632c.376-1.217.84-2.48 1.383-3.767a53.58 53.58 0 0 0 2.549 4.4Zm6.257 5.172a40.864 40.864 0 0 1-2.567-3.072c.817.032 1.65.048 2.496.048.87 0 1.73-.02 2.575-.057a38.782 38.782 0 0 1-2.504 3.081Zm8.7-9.636c.57 1.3 1.05 2.557 1.432 3.753-1.237.282-2.573.51-3.98.679.451-.715.888-1.44 1.31-2.171.43-.745.842-1.498 1.237-2.261Zm-2.817 1.35a59.78 59.78 0 0 1-2.047 3.303c-1.3.092-2.603.137-3.907.137-1.328 0-2.62-.042-3.863-.122a51.706 51.706 0 0 1-3.906-6.746 51.214 51.214 0 0 1 3.884-6.733 51.6 51.6 0 0 1 7.777.002 54.946 54.946 0 0 1 2.056 3.282 59.672 59.672 0 0 1 1.84 3.423 54.92 54.92 0 0 1-1.834 3.454Zm3.76-20.354c1.429.824 1.984 4.147 1.087 8.504-.058.278-.122.562-.192.849a43.64 43.64 0 0 0-5.705-.902c-1.172-1.67-2.387-3.187-3.607-4.501.32-.308.647-.608.982-.9 3.15-2.741 6.094-3.823 7.435-3.05Zm-9.714 13.073a3.81 3.81 0 1 1 0 7.62 3.81 3.81 0 0 1 0-7.62Z" fill="#00D8FF"/></g><defs><linearGradient id="a" x1="30" y1="0" x2="30" y2="60" gradientUnits="userSpaceOnUse"><stop stop-color="#23272F"/><stop offset="1" stop-color="#191C22"/></linearGradient><clipPath id="b"><path fill="#fff" transform="translate(8.632 11)" d="M0 0h42.667v38H0z"/></clipPath></defs></svg>
